!!!!SEGMENT: pl-sa--193-a-v-23--007_pausch-eugen--missa-in-c-dona.krn
!!!cenid: 17xx:642
!!!COM: Pausch, Eugen
!!!COM-rismid: pe30002453
!!!CDT: 1758-1838
!!!CNT: German
!!!OTL: Missa in C – Dona
!!!PDT:
!!!AGN: Sacred; Mass
!!!SMS-siglum: PL-SA
!!!SMS-shelfmark: 193/A V 23
!!!SMS-shelfwork: 001-007 M
!!!SMS-variant:
!!!SMS-altvar:
!!!NIFC-rismid: 1001036465
!!!URL-scan: http://bc.bdsandomierz.pl/dlibra/publication/1529/edition/1497/content
!!!ONB-nifc: UWAGA: części Mszy: Kyrie, Gloria, Credo, Sanctus, Benedictus, Agnus Dei, Dona Uwaga: brak partii cornu 2.
**kern	**fba	**kern	**kern	**dynam	**kern	**text	**kern	**text	**kern	**kern	**kern	**kern
*part9	*	*part8	*part7	*part7	*part6	*part6	*part5	*part5	*part4	*part3	*part2	*part1
*	*	*group4	*group4	*	*group3	*	*group3	*	*group2	*group2	*group1	*group1
*staff9	*	*staff8	*staff7	*	*staff6	*staff6	*staff5	*staff5	*staff4	*staff3	*staff2	*staff1
*I"Organo.	*	*I"Violino 2do	*I"Violino 1mo	*	*I"Baſso	*	*I"Canto	*	*I"Cornu 2do in C.	*I"Cornu Primo in C.	*I"Clarinetto vel Oboe 2do: in C.	*I"Clarinetto vel Oboe 1. in C
*I'Org	*	*I'Vl 2	*I'Vl 1	*	*I'B	*	*I'S	*	*I'Cor 2	*I'Cor 1	*I'Cl 2	*I'Cl 1
*clefF4	*	*clefG2	*clefG2	*	*clefF4	*	*clefC1	*	*clefG2	*clefG2	*clefG2	*clefG2
*	*	*	*	*	*	*	*	*	*Trd0c0	*Trd0c0	*	*
*k[]	*	*k[]	*k[]	*	*k[]	*	*k[]	*	*k[]	*k[]	*k[]	*k[]
*M2/4	*	*M2/4	*M2/4	*	*M2/4	*	*M2/4	*	*M2/4	*M2/4	*M2/4	*M2/4
*>[A,A,B]	*	*>[A,A,B]	*>[A,A,B]	*	*>[A,A,B]	*	*>[A,A,B]	*	*>[A,A,B]	*>[A,A,B]	*>[A,A,B]	*>[A,A,B]
=1	=1	=1	=1	=1	=1	=1	=1	=1	=1	=1	=1	=1
*>A	*	*>A	*>A	*	*>A	*	*>A	*	*>A	*>A	*>A	*>A
!LO:TX:a:i:t=Tutti	!	!	!	!	!LO:TX:b:t=P:problem:"D" przed kluczem	!	!LO:TX:b:t=P:problem:"D" przed kluczem	!	!	!	!LO:TX:a:t=2	!LO:TX:a:t=2.
!LO:TX:a:i:t=Allo	!	!LO:TX:a:i:t=Allo	!LO:TX:a:i:t=Allo&colon;	!	!	!	!LO:TX:a:i:t=allo	!	!LO:TX:a:t=P:problem:brak partii w źródle	!	!LO:TX:a:i:t=Allo	!
!	!	!	!	!	!	!	!	!	!	!	!LO:N:vis=0	!LO:N:vis=0
4C/	.	4e 4G/	4cc\	.	4c\	[D]o-	4cc\	[D]o-	2ryy	4cc\	1r	1r
8.C/L	.	8eL 8G/	8cc\L	.	4c\	-na	4cc\	-na	.	8cc\L	.	.
.	.	8eJ 8G/	8cc\J	.	.	.	.	.	.	8cc\J	.	.
16C/Jk	.	.	.	.	.	.	.	.	.	.	.	.
=2	=2	=2	=2	=2	=2	=2	=2	=2	=2	=2	=2	=2
*	*	*^	*	*	*	*	*	*	*	*	*	*
4C/	2 4	4f/	2G/	4dd\	.	4c\	No-	4dd\	no-	2ryy	4dd\	.	.
4C/	8 3	4e/	.	4cc\	.	4C/	-bis	4cc\	-bis	.	4ee\	.	.
*	*	*v	*v	*	*	*	*	*	*	*	*	*	*
=3	=3	=3	=3	=3	=3	=3	=3	=3	=3	=3	=3	=3
!LO:TX:a:t=2	!	!	!	!	!	!	!LO:TX:a:t=2.	!	!	!LO:TX:a:t=2.	!LO:TX:a:t=P:problem:delikatny łuk idący do końca t.15	!
!LO:N:vis=0	!	!	!	!	!LO:N:vis=0	!	!LO:N:vis=0	!	!	!LO:N:vis=0	!	!
1r	.	8e/L	4gg\	.	1r	.	1r	.	2ryy	1r	16ee\LL	16gg\LL
.	.	.	.	.	.	.	.	.	.	.	16ff\	16aa\
.	.	8c/	.	.	.	.	.	.	.	.	16ee\	16gg\
.	.	.	.	.	.	.	.	.	.	.	16dd\JJ	16ff\JJ
.	.	8e/	8ee\L	.	.	.	.	.	.	.	8cc\L	8ee\L
.	.	8c/J	8gg\J	.	.	.	.	.	.	.	8ee\J	8gg\J
=4	=4	=4	=4	=4	=4	=4	=4	=4	=4	=4	=4	=4
.	.	8f/L	4aa\	.	.	.	.	.	2ryy	.	8ff\L	8aa\L
.	.	8c/	.	.	.	.	.	.	.	.	8ff\J	8aa\J
.	.	8e/	4gg\	.	.	.	.	.	.	.	4ee\	4gg\
.	.	8c/J	.	.	.	.	.	.	.	.	.	.
=5	=5	=5	=5	=5	=5	=5	=5	=5	=5	=5	=5	=5
!	!	!	!	!	!	!	!	!	!	!	!LO:TX:a:t=2.	!LO:TX:a:t=2.
!	!	!	!	!	!	!	!	!	!	!	!LO:N:vis=0	!LO:N:vis=0
4C/	.	4e 4G/	4cc\	.	4c\	No-	4cc\	Do-	2ryy	4cc\	1r	1r
8.C/L	.	8eL 8G/	8.cc\L	.	4c\	-bis	4cc\	-na	.	8cc\L	.	.
.	.	8eJ 8G/	.	.	.	.	.	.	.	8cc\J	.	.
16C/Jk	.	.	16cc\Jk	.	.	.	.	.	.	.	.	.
=6	=6	=6	=6	=6	=6	=6	=6	=6	=6	=6	=6	=6
*	*	*^	*	*	*	*	*	*	*	*	*	*
4C/	2 4	4f/	2G/	4dd\	.	4c\	pa-	4dd\	no-	2ryy	4dd\	.	.
4C/	8 3	4e/	.	4cc\	.	4C/	-cem	4cc\	-bis	.	4ee\	.	.
*	*	*v	*v	*	*	*	*	*	*	*	*	*	*
=7	=7	=7	=7	=7	=7	=7	=7	=7	=7	=7	=7	=7
!LO:TX:a:t=2	!	!	!	!	!	!	!	!	!	!LO:TX:a:t=2.	!	!
!LO:N:vis=0	!	!	!	!	!LO:N:vis=0	!	!LO:N:vis=0	!	!	!LO:N:vis=0	!	!
1r	.	8e/L	4gg\	.	1r	.	1r	.	2ryy	1r	16ee\LL	16gg\LL
.	.	.	.	.	.	.	.	.	.	.	16ff\	16aa\
.	.	8c/	.	.	.	.	.	.	.	.	16ee\	16gg\
.	.	.	.	.	.	.	.	.	.	.	16dd\JJ	16ff\JJ
.	.	8e/	8.ee\L	.	.	.	.	.	.	.	8cc\L	8ee\L
.	.	8c/J	.	.	.	.	.	.	.	.	8ee\J	8gg\J
.	.	.	16gg\Jk	.	.	.	.	.	.	.	.	.
=8	=8	=8	=8	=8	=8	=8	=8	=8	=8	=8	=8	=8
.	.	8d/L	4ff\	.	.	.	.	.	2ryy	.	8dd\L	8ff\L
.	.	8B/J	.	.	.	.	.	.	.	.	8dd\J	8ff\J
.	.	4c/	4ee\	.	.	.	.	.	.	.	4cc\	4ee\
!	!	!	!LO:LB:g=original	!	!	!	!	!	!	!	!	!
=9	=9	=9	=9	=9	=9	=9	=9	=9	=9	=9	=9	=9
*2\right	*	*	*	*	*	*	*	*	*	*	*	*
*tremolo	*	*	*	*	*	*	*	*	*	*	*	*
8G\L	.	16b\LL	16dd\LL	.	4G\	Do-	4dd\	do-	2ryy	4g/	4b\	4dd\
.	.	16cc\	16ee\	.	.	.	.	.	.	.	.	.
8G\	.	16b\	16dd\	.	.	.	.	.	.	.	.	.
.	.	16a\JJ	16cc\JJ	.	.	.	.	.	.	.	.	.
8G\	.	8g/L	8b\L	.	4G\	-na	8b\L	-na	.	4r	8g\L	8b\L
8G\J	.	8a/J	8cc\J	.	.	.	8cc\J	.	.	.	8a\J	8cc\J
!	!	!LO:LB:g=original	!	!	!	!	!	!	!	!	!	!
=10	=10	=10	=10	=10	=10	=10	=10	=10	=10	=10	=10	=10
8G\L	.	4b\	8dd\L	.	4G\	No-	4dd\	no-	2ryy	4dd\	4b\	4dd\
8G\	.	.	8b\	.	.	.	.	.	.	.	.	.
8G\	.	4cc\	8ee\	.	4GG/	-bis	4ee\	-bis	.	4ee\	4cc\	4ee\
8G\J	.	.	8cc\J	.	.	.	.	.	.	.	.	.
=11	=11	=11	=11	=11	=11	=11	=11	=11	=11	=11	=11	=11
8G\L	.	16b\LL	16dd\LL	.	4G\	pa-	4dd\	do-	2ryy	4dd\	4b\	4dd\
.	.	16cc\	16ee\	.	.	.	.	.	.	.	.	.
8G\	.	16b\	16dd\	.	.	.	.	.	.	.	.	.
.	.	16a\JJ	16cc\JJ	.	.	.	.	.	.	.	.	.
8G\	.	8g/L	8b\L	.	4G\	-cem	8b\L	-na	.	4r	8g\L	8b\L
8G\J	.	8a/J	8cc\J	.	.	.	8cc\J	.	.	.	8a\J	8cc\J
!	!	!	!	!	!	!	!	!	!	!	!	!LO:LB:g=original
=12	=12	=12	=12	=12	=12	=12	=12	=12	=12	=12	=12	=12
*	*	*	*	*	*	*ij	*	*	*	*	*	*
8G\L	.	4b\	8dd\L	.	4G\	pa-	4dd\	pa-	2ryy	4dd\	4b\	4dd\
8G\	.	.	8b\	.	.	.	.	.	.	.	.	.
8G\	.	4cc\	8ee\	.	4GG/	-cem	4ee\	-cem	.	4ee\	4cc\	4ee\
*	*	*	*	*	*	*Xij	*	*	*	*	*	*
8G\J	.	.	8cc\J	.	.	.	.	.	.	.	.	.
*Xtremolo	*	*	*	*	*	*	*	*	*	*	*	*
!LO:LB:g=original	!	!	!	!	!LO:LB:g=original	!	!LO:LB:g=original	!	!	!LO:LB:g=original	!	!
=13	=13	=13	=13	=13	=13	=13	=13	=13	=13	=13	=13	=13
8G\L	.	8b\L	8dd\L	.	8G\	Do-	8dd\	do-	2ryy	4dd\	4b\	4dd\
8G\	.	16ee\L	16gg\L	.	8G\	-na	8dd\	-na	.	.	.	.
.	.	16dd\JJ	16ff#X\JJ	.	.	.	.	.	.	.	.	.
.	.	8qqdd/	8qqff#/	.	.	.	.	.	.	.	.	.
8C\	6	8cc\L	8ee\L	.	8c\	No-	8dd\	no-	.	4ee\	8cc\L	8ee\L
8C\J	.	16b\L	16dd\L	.	8c\	-bis	8dd\	-bis	.	.	8ff\J	8aa\J
.	.	16a\JJ	16cc\JJ	.	.	.	.	.	.	.	.	.
=14	=14	=14	=14	=14	=14	=14	=14	=14	=14	=14	=14	=14
*tremolo	*	*	*	*	*	*	*	*	*	*	*	*
8D\L	4	8g\L	8b\L	.	4d\	pa-	4dd\	pa-	2ryy	4dd\	4b\	4gg\
8D\	.	16cc\L	16ee\L	.	.	.	.	.	.	.	.	.
.	.	16b\JJ	16dd\JJ	.	.	.	.	.	.	.	.	.
.	.	8qb/	8qqdd/	.	.	.	.	.	.	.	.	.
8D\	#	8a/L	8cc\L	.	4D/	.	4ff#X\	.	.	4dd\	4a\	4ff#X\
8D\J	.	16g/L	16b\L	.	.	.	.	.	.	.	.	.
.	.	16f#X/JJ	16a\JJ	.	.	.	.	.	.	.	.	.
*Xtremolo	*	*	*	*	*	*	*	*	*	*	*	*
=15	=15	=15	=15	=15	=15	=15	=15	=15	=15	=15	=15	=15
4GG/	.	4g/	4g/	.	4G\	-cem	4gg\	-cem	2ryy	4gg\	4b\	4gg\
4GG/	.	4b 4d 4G/	4gg 4b 4d/	.	4r	.	4r	.	.	4gg\	4b\	4gg\
=16	=16	=16	=16	=16	=16	=16	=16	=16	=16	=16	=16	=16
4GG/	.	4b 4d 4G/	4gg 4b 4d/	.	2r	.	2r	.	2ryy	4gg\	4b\	4gg\
4r	.	4r	4r	.	.	.	.	.	.	4r	4r	4r
!	!	!	!	!	!	!	!	!	!	!	!LO:LB:g=original	!
=17:|!	=17:|!	=17:|!	=17:|!	=17:|!	=17:|!	=17:|!	=17:|!	=17:|!	=17:|!	=17:|!	=17:|!	=17:|!
*>B	*	*>B	*>B	*	*>B	*	*>B	*	*>B	*>B	*>B	*>B
!	!	!	!	!	!	!	!	!	!	!LO:TX:a:t=4.	!LO:TX:a:t=1.	!LO:TX:a:t=1.
!	!	!	!	!	!	!	!	!	!	!LO:N:vis=00	!	!
4C#X/	6 3_	4ee\	4gg\	.	4c#X\	Do-	4gg\	Do-	2ryy	0r	2r	2r
8.C#/L	.	8.ee\L	8.gg\L	.	4c#\	-na	4gg\	-na	.	.	.	.
16C#/Jk	X	16ee\Jk	16gg\Jk	.	.	.	.	.	.	.	.	.
=18	=18	=18	=18	=18	=18	=18	=18	=18	=18	=18	=18	=18
!LO:SIC:s=4C#:v	!	!	!	!	!LO:SIC:s=4c#:v	!	!	!	!	!	!	!
4C/	.	4ee\	4gg\	.	4c\	No-	4gg\	no-	2ryy	.	4r	4r
!	!	!	!LO:TX:a:t=P:problem:mixed beam	!	!LO:SIC:s=4c#:v	!	!	!	!	!	!	!
4r	.	4r	8.a/L	.	8c\	-bis	4gg\	-bis	.	.	8r	8r
.	.	.	.	.	8r	.	.	.	.	.	8gg\	8bb-X\
.	.	.	16gg\Jk	.	.	.	.	.	.	.	.	.
!	!	!	!LO:LB:g=original	!	!	!	!	!	!	!	!	!
=19	=19	=19	=19	=19	=19	=19	=19	=19	=19	=19	=19	=19
!LO:TX:a:t=P:problem:mixed beam	!	!	!	!	!	!	!	!	!	!	!	!
8D\L	.	8a/L	8ff\L	.	8d\L	pa-	8ff\L	pa-	2ryy	.	8ff\L	8aa\L
8G\	- 6	8g/	8ee\	.	8G\J	.	8ee\J	.	.	.	8ee\	8gg\
!	!	!	!	!	!LO:TX:a:t=P:problem:mixed beam	!	!	!	!	!	!	!
8A\	4	8f/	8dd\	.	8A\L	.	8dd\L	.	.	.	8dd\	8ff\
8AA/J	#	8e/J	8cc#X\J	.	8AA/J	.	8cc#X\J	.	.	.	8cc#X\J	8ee\J
!	!	!	!	!	!LO:LB:g=original	!	!	!	!	!	!	!
=20	=20	=20	=20	=20	=20	=20	=20	=20	=20	=20	=20	=20
!	!	!	!LO:SIC:s=4cc#:v	!	!	!	!	!	!	!	!	!
4D\	-	4e/	4cc\	.	4D\	-cem	4dd\	.	2ryy	.	4cc#X\	4ee\
4DD/	.	4f/	4dd\	.	8r	.	4ee\	-cem	.	.	4dd\	4ff\
.	.	.	.	.	8r	.	.	.	.	.	.	.
=21	=21	=21	=21	=21	=21	=21	=21	=21	=21	=21	=21	=21
!	!	!	!	!	!	!	!	!	!	!	!LO:TX:a:t=1.	!LO:TX:a:t=1.
4BB/	6 5_	4dd 4g/	4ff\	.	4B\	Do-	4ffn\	Do-	2ryy	4ff\	2r	2r
8.BB/L	.	8ddL 8g/	8.ff\L	.	4B\	-na	4ff\	-na	.	8.ff\L	.	.
.	X	8ddJ 8g/	.	.	.	.	.	.	.	.	.	.
16BB/Jk	.	.	16ff\Jk	.	.	.	.	.	.	16ff\Jk	.	.
!	!	!	!	!	!	!	!LO:LB:g=original	!	!	!	!	!
=22	=22	=22	=22	=22	=22	=22	=22	=22	=22	=22	=22	=22
4BB/	.	4dd 4g/	4ff\	.	4B\	No-	4ff\	no-	2ryy	4ff\	4r	4r
!	!	!	!LO:TX:a:t=P:problem:mixed beam	!	!	!	!	!	!	!	!	!
4r	.	8r	8.g/L	.	8B\	-bis	4ff\	-bis	.	4r	8r	8r
.	.	8a/	.	.	8r	.	.	.	.	.	8ff\	8aa\
.	.	.	16ff\Jk	.	.	.	.	.	.	.	.	.
!LO:LB:g=original	!	!	!	!	!	!	!	!	!	!	!	!
=23	=23	=23	=23	=23	=23	=23	=23	=23	=23	=23	=23	=23
!LO:TX:a:t=P:problem:mixed beam	!	!	!	!	!	!	!	!	!	!	!	!
8C\L	.	8g/L	8ee\L	.	8c\L	pa-	8ee\L	pa-	2ryy	8gg\L	8ee\L	8gg\L
8F\	6 5	8f/	8dd\	.	8F\J	.	8dd\	.	.	8ff\	8dd\	8ff\
!	!	!	!	!	!LO:TX:a:t=P:problem:mixed beam	!	!	!	!	!	!	!
8G\	4	8e/	8cc\	.	8G\L	.	8ccn\	.	.	8ee\	8cc\	8ee\
8GG/J	3	8d/J	8b\J	.	8GG/J	.	8b\J	.	.	8dd\J	8b\J	8dd\J
!	!	!	!	!	!	!	!	!	!	!	!	!LO:LB:g=original
=24	=24	=24	=24	=24	=24	=24	=24	=24	=24	=24	=24	=24
4C/	.	4d/	4b\	.	4C/	-cem	4b\	.	2ryy	4dd\	4b\	4dd\
4C/	.	8e/	4cc\	.	4r	.	4cc\	-cem	.	4ee\	4cc\	4ee\
.	.	8r	.	.	.	.	.	.	.	.	.	.
!	!	!LO:LB:g=original	!	!	!	!	!	!	!	!	!	!
=25	=25	=25	=25	=25	=25	=25	=25	=25	=25	=25	=25	=25
!	!	!	!	!	!LO:N:vis=00	!	!LO:N:vis=00	!	!	!LO:TX:a:t=P:problem: brak taktu w źródle	!LO:TX:a:t=1.	!LO:TX:a:t=1.
4r	.	4cc\	4ee-X\	.	0r	.	0r	.	2ryy	2ryy	2r	2r
4F#X\	6 5	8.cc\L	8.ee-\L	.	.	.	.	.	.	.	.	.
.	.	16cc\Jk	16ee-\Jk	.	.	.	.	.	.	.	.	.
=26	=26	=26	=26	=26	=26	=26	=26	=26	=26	=26	=26	=26
*	*	*2\right	*	*	*	*	*	*	*	*	*	*
4G\	.	2b\	4dd\	.	.	.	.	.	2ryy	4g/	4r	4r
4r	.	.	4gg\	.	.	.	.	.	.	4r	4b\	4dd\
=27	=27	=27	=27	=27	=27	=27	=27	=27	=27	=27	=27	=27
4r	.	2cc\	4ee-X\	.	.	.	.	.	2ryy	2r	4cc\	4ee-X\
8r	.	.	8.ee-\L	.	.	.	.	.	.	.	4r	4r
8F#X\	6 5	.	.	.	.	.	.	.	.	.	.	.
.	.	.	16ee-\Jk	.	.	.	.	.	.	.	.	.
=28	=28	=28	=28	=28	=28	=28	=28	=28	=28	=28	=28	=28
4G\	.	2b\	4dd\	.	.	.	.	.	2ryy	4g/	4r	4r
4r	.	.	4gg\	.	.	.	.	.	.	4r	4b\	4dd\
=29	=29	=29	=29	=29	=29	=29	=29	=29	=29	=29	=29	=29
!	!	!	!	!	!LO:N:vis=0	!	!LO:N:vis=0	!	!	!	!	!
4r	.	2cc\	4ee-X\	.	1r	.	1r	.	2ryy	2r	4cc\	4ee-X\
4F#X\	6 5	.	8.ee-\L	.	.	.	.	.	.	.	4cc\	4ee-\
.	.	.	16ee-\Jk	.	.	.	.	.	.	.	.	.
!	!	!	!	!	!	!	!	!	!	!LO:LB:g=original	!	!
=30	=30	=30	=30	=30	=30	=30	=30	=30	=30	=30	=30	=30
*	*	*	*	*	*	*	*	*	*	*	*2\right	*2\right
!	!	!	!	!	!	!	!	!	!	!	!	!LO:TX:a:t=d.
!	!	!	!	!	!	!	!	!	!	!	!	!LO:SIC:2dd:v:t=poprawione na dd
4G\	.	2b\	4dd\	.	.	.	.	.	2ryy	4g/	2b\	2ee\
4r	.	.	4gg\	.	.	.	.	.	.	4r	.	.
=31	=31	=31	=31	=31	=31	=31	=31	=31	=31	=31	=31	=31
!LO:TX:a:t=1.	!	!	!	!	!	!	!	!	!	!	!	!
2r	.	2r;	2r;	.	2r;	.	2r;	.	2ryy	2r;	2r;	2r;
!	!	!	!LO:LB:g=original	!	!	!	!	!	!	!	!	!
=32	=32	=32	=32	=32	=32	=32	=32	=32	=32	=32	=32	=32
!	!	!	!	!	!	!	!	!	!	!	!LO:TX:a:t=2	!LO:TX:a:t=2.
!	!	!	!	!	!	!	!	!	!	!	!LO:N:vis=0	!LO:N:vis=0
4C/	.	4e/	4cc\	.	4c\	Do-	4cc\	Do-	2ryy	4cc\	1r	1r
8.C/L	.	8.e/L	8.cc\L	.	4c\	-na	4cc\	-na	.	8cc\L	.	.
.	.	.	.	.	.	.	.	.	.	8cc\J	.	.
16C/Jk	.	16e/Jk	16cc\Jk	.	.	.	.	.	.	.	.	.
!LO:LB:g=original	!	!	!	!	!	!	!	!	!	!	!	!
=33	=33	=33	=33	=33	=33	=33	=33	=33	=33	=33	=33	=33
4C/	2 4	4f/	4dd\	.	4c\	No-	4dd\	no-	2ryy	4dd\	.	.
4C/	8 3	4e/	4cc\	.	4C/	-bis	4cc\	-bis	.	4ee\	.	.
!	!	!	!	!	!LO:LB:g=original	!	!	!	!	!	!	!
=34	=34	=34	=34	=34	=34	=34	=34	=34	=34	=34	=34	=34
!LO:TX:a:t=2.	!	!	!	!	!	!	!	!	!	!LO:TX:a:t=2.	!	!
!LO:N:vis=0	!	!	!	!	!LO:N:vis=0	!	!LO:N:vis=0	!	!	!LO:N:vis=0	!	!
1r	.	8e/L	4gg\	.	1r	.	1r	.	2ryy	1r	16ee\LL	16gg\LL
.	.	.	.	.	.	.	.	.	.	.	16ff\	16aa\
.	.	8c/	.	.	.	.	.	.	.	.	16ee\	16gg\
.	.	.	.	.	.	.	.	.	.	.	16dd\JJ	16ff\JJ
.	.	8e/	8ee\L	.	.	.	.	.	.	.	8cc\L	8ee\L
.	.	8c/J	8gg\J	.	.	.	.	.	.	.	8ee\J	8gg\J
!	!	!	!	!	!	!	!	!	!	!	!LO:LB:g=original	!
=35	=35	=35	=35	=35	=35	=35	=35	=35	=35	=35	=35	=35
.	.	8f/L	4aa\	.	.	.	.	.	2ryy	.	8ff\L	8aa\L
.	.	8c/	.	.	.	.	.	.	.	.	8ff\J	8aa\J
.	.	8e/	4gg\	.	.	.	.	.	.	.	4ee\	4gg\
.	.	8c/J	.	.	.	.	.	.	.	.	.	.
!	!	!	!	!	!	!	!	!	!	!	!	!LO:LB:g=original
=36	=36	=36	=36	=36	=36	=36	=36	=36	=36	=36	=36	=36
!	!	!	!	!	!	!	!	!	!	!	!LO:TX:a:t=2.	!LO:TX:a:t=2.
!	!	!	!	!	!	!	!	!	!	!	!LO:N:vis=0	!LO:N:vis=0
4C/	.	4e/	4cc\	.	4c\	pa-	4cc\	Do-	2ryy	4cc\	1r	1r
8.C/L	.	8e/L	8.cc\L	.	4c\	-cem	4cc\	-na	.	8.cc\L	.	.
.	.	8e/J	.	.	.	.	.	.	.	.	.	.
16C/Jk	.	.	16cc\Jk	.	.	.	.	.	.	16cc\Jk	.	.
=37	=37	=37	=37	=37	=37	=37	=37	=37	=37	=37	=37	=37
*	*	*	*	*	*	*ij	*	*	*	*	*	*
4C/	4 2	4f/	4dd\	.	4c\	pa-	4dd\	no-	2ryy	4dd\	.	.
4C/	3 1	4e/	4cc\	.	4c\	-cem	4cc\	-bis	.	4ee\	.	.
*	*	*	*	*	*	*Xij	*	*	*	*	*	*
=38	=38	=38	=38	=38	=38	=38	=38	=38	=38	=38	=38	=38
!LO:TX:a:t=2.	!	!	!	!	!	!	!	!	!	!LO:TX:a:t=2.	!	!
!LO:N:vis=0	!	!	!	!	!LO:N:vis=0	!	!LO:N:vis=0	!	!	!LO:N:vis=0	!	!
1r	.	8e/L	4gg\	.	1r	.	1r	.	2ryy	1r	16ee\LL	16gg\LL
.	.	.	.	.	.	.	.	.	.	.	16ff\	16aa\
.	.	8c/	.	.	.	.	.	.	.	.	16ee\	16gg\
.	.	.	.	.	.	.	.	.	.	.	16dd\JJ	16ff\JJ
.	.	8e/	8ee\L	.	.	.	.	.	.	.	8cc\L	8ee\L
.	.	8c/J	8gg\J	.	.	.	.	.	.	.	8ee\J	8gg\J
=39	=39	=39	=39	=39	=39	=39	=39	=39	=39	=39	=39	=39
.	.	8B/L	4ff\	.	.	.	.	.	2ryy	.	8dd\L	8ff\L
.	.	8B/J	.	.	.	.	.	.	.	.	8dd\J	8ff\J
.	.	4c/	4ee\	.	.	.	.	.	.	.	4cc\	4ee\
!	!	!	!	!	!	!	!LO:LB:g=original	!	!	!	!	!
=40	=40	=40	=40	=40	=40	=40	=40	=40	=40	=40	=40	=40
*tremolo	*	*tremolo	*	*	*	*	*	*	*	*2\right	*	*
!	!	!	!	!LO:DY:b	!	!	!	!	!	!	!	!
8E\L	6 5	16gg\LL	16cc\LL	f	4E\	Do-	4.gg\	Do-	2ryy	2cc\	2gg\	2bb-X\
.	.	16gg\	16bb-X\	.	.	.	.	.	.	.	.	.
8E\	.	16gg\	16bb-\	.	.	.	.	.	.	.	.	.
.	.	16gg\	16bb-\JJ	.	.	.	.	.	.	.	.	.
*	*	*	*tremolo	*	*	*	*	*	*	*	*	*
8E\	1 4	16gg\	16bb-\LL	.	4E\	-na	.	.	.	.	.	.
.	.	16gg\	16bb-\	.	.	.	.	.	.	.	.	.
8E\J	.	16gg\	16bb-\	.	.	.	8gg\	-na	.	.	.	.
.	.	16gg\JJ	16bb-\JJ	.	.	.	.	.	.	.	.	.
=41	=41	=41	=41	=41	=41	=41	=41	=41	=41	=41	=41	=41
*	*	*	*2\right	*	*	*	*	*	*	*	*	*
8F\L	3	16ff\LL	16aa\LL	.	4F\	No-	4ff\	no-	2ryy	2cc\	2ff\	2aa\
.	.	16ff\	16aa\	.	.	.	.	.	.	.	.	.
8F\	.	16ff\	16aa\	.	.	.	.	.	.	.	.	.
.	.	16ff\	16aa\	.	.	.	.	.	.	.	.	.
8F\	.	16ff\	16aa\	.	4F\	-bis	4ff\	-bis	.	.	.	.
.	.	16ff\	16aa\	.	.	.	.	.	.	.	.	.
8F\J	.	16ff\	16aa\	.	.	.	.	.	.	.	.	.
.	.	16ff\JJ	16aa\JJ	.	.	.	.	.	.	.	.	.
=42	=42	=42	=42	=42	=42	=42	=42	=42	=42	=42	=42	=42
*	*	*	*	*	*	*	*2\right	*	*	*	*	*
!	!	!	!	!	!	!	!	!	!	!LO:TX:a:t=2	!	!
!	!	!	!	!	!	!	!	!	!	!LO:N:vis=0	!	!
8C#X/L	6 5	16ee\LL	16gg\LL	.	2C#X/	pa-	2ee\	pa-	2ryy	1r	2ee\	2gg\
.	.	16ee\	16gg\	.	.	.	.	.	.	.	.	.
8C#X/	.	16ee\	16gg\	.	.	.	.	.	.	.	.	.
.	.	16ee\	16gg\	.	.	.	.	.	.	.	.	.
8C#X/	.	16ee\	16gg\	.	.	.	.	.	.	.	.	.
.	.	16ee\	16gg\	.	.	.	.	.	.	.	.	.
8C#X/J	.	16ee\	16gg\	.	.	.	.	.	.	.	.	.
.	.	16ee\JJ	16gg\JJ	.	.	.	.	.	.	.	.	.
=43	=43	=43	=43	=43	=43	=43	=43	=43	=43	=43	=43	=43
8D\L	.	16dd\LL	16ff\LL	.	2D/	-cem	2dd\	-cem	2ryy	.	2dd\	2ff\
.	.	16dd\	16ff\	.	.	.	.	.	.	.	.	.
8D\	.	16dd\	16ff\	.	.	.	.	.	.	.	.	.
.	.	16dd\	16ff\	.	.	.	.	.	.	.	.	.
8D\	.	16dd\	16ff\	.	.	.	.	.	.	.	.	.
.	.	16dd\	16ff\	.	.	.	.	.	.	.	.	.
8D\J	.	16dd\	16ff\	.	.	.	.	.	.	.	.	.
.	.	16dd\JJ	16ff\JJ	.	.	.	.	.	.	.	.	.
=44	=44	=44	=44	=44	=44	=44	=44	=44	=44	=44	=44	=44
8BB/L	6 5	16dd\LL	16ff\LL	.	4BB/	Do-	4ff\	Do-	2ryy	2dd\	2dd\	2ff\
.	.	16dd\	16ff\	.	.	.	.	.	.	.	.	.
8BB/	.	16dd\	16ff\	.	.	.	.	.	.	.	.	.
.	.	16dd\	16ff\	.	.	.	.	.	.	.	.	.
8BB/	.	16dd\	16ff\	.	4BB/	-na	4ff\	-na	.	.	.	.
.	.	16dd\	16ff\	.	.	.	.	.	.	.	.	.
8BB/J	.	16dd\	16ff\	.	.	.	.	.	.	.	.	.
.	.	16dd\JJ	16ff\JJ	.	.	.	.	.	.	.	.	.
*Xtremolo	*	*Xtremolo	*Xtremolo	*	*	*	*	*	*	*	*	*
!	!	!LO:LB:g=original	!	!	!	!	!	!	!	!	!	!
=45	=45	=45	=45	=45	=45	=45	=45	=45	=45	=45	=45	=45
8C\L	.	8cc\L	8ee\L	.	4Cn\	No-	4ee\	no-	2ryy	4ee\	4cc\	4ee\
8C\	.	16dd\L	16ff\L	.	.	.	.	.	.	.	.	.
.	.	16ee\JJ	16gg\JJ	.	.	.	.	.	.	.	.	.
!	!	!	!LO:LB:g=original	!	!	!	!	!	!	!	!	!
.	.	8qqee/	8qqgg/	.	.	.	.	.	.	.	.	.
8F\	6 5	8dd\L	8ff\L	.	4F\	-bis	4dd\	-bis	.	4ff\	4dd\	4ff\
8F\J	.	16cc\L	16ee\L	.	.	.	.	.	.	.	.	.
.	.	16b\JJ	16dd\JJ	.	.	.	.	.	.	.	.	.
!LO:LB:g=original	!	!	!	!	!LO:LB:g=original	!	!	!	!	!LO:LB:g=original	!	!
=46	=46	=46	=46	=46	=46	=46	=46	=46	=46	=46	=46	=46
!LO:TX:a:t=P:problem:mixed beam	!	!	!	!	!	!	!	!	!	!	!	!
8G\L	4	8e/L	8cc\L	.	4G\	pa-	4cc\	pa-	2ryy	4ee\	4cc\	4ee\
8G\	.	16f/L	16dd\L	.	.	.	.	.	.	.	.	.
.	.	16g/JJ	16ee\JJ	.	.	.	.	.	.	.	.	.
.	.	8qqg/	8qee/	.	.	.	.	.	.	.	.	.
8GG/	3	8f/L	8dd\L	.	4GG/	.	4b\	.	.	4dd\	8b\L	4dd\
8GG/J	.	16e/L	16cc\L	.	.	.	.	.	.	.	8g\J	.
.	.	16d/JJ	16b\JJ	.	.	.	.	.	.	.	.	.
=47	=47	=47	=47	=47	=47	=47	=47	=47	=47	=47	=47	=47
4C/	.	4e 4G/	4cc\	.	4C/	-cem	4cc\	-cem	2ryy	4cc\	8e/L	8dd\L
.	.	.	.	.	.	.	.	.	.	.	8e/J	8cc\J
4r	.	4r	4r	.	4r	.	4r	.	.	4r	4e/	4cc\
=48	=48	=48	=48	=48	=48	=48	=48	=48	=48	=48	=48	=48
*tremolo	*	*tremolo	*	*	*	*	*	*	*	*	*	*
!	!	!	!	!	!	!	!	!	!	!	!LO:TX:a:t=4.	!
!	!	!	!	!LO:DY:b	!	!	!	!	!	!	!LO:N:vis=00	!LO:N:vis=00
8E\L	6 -5	16gg\LL	16cc\LL	p	4E\	Do-	4gg\	Do-	2ryy	2cc\	0r	0r
.	.	16gg\	16bb-X\	.	.	.	.	.	.	.	.	.
8E\	.	16gg\	16bb-\	.	.	.	.	.	.	.	.	.
.	.	16gg\	16bb-\JJ	.	.	.	.	.	.	.	.	.
*	*	*	*tremolo	*	*	*	*	*	*	*	*	*
8E\	.	16gg\	16bb-\LL	.	4E\	-na	4gg\	-na	.	.	.	.
.	.	16gg\	16bb-\	.	.	.	.	.	.	.	.	.
8E\J	.	16gg\	16bb-\	.	.	.	.	.	.	.	.	.
.	.	16gg\JJ	16bb-\JJ	.	.	.	.	.	.	.	.	.
=49	=49	=49	=49	=49	=49	=49	=49	=49	=49	=49	=49	=49
8F\L	.	16ff\LL	16aa\LL	.	4F\	No-	4ff\	No-	2ryy	2cc\	.	.
.	.	16ff\	16aa\	.	.	.	.	.	.	.	.	.
8F\	.	16ff\	16aa\	.	.	.	.	.	.	.	.	.
.	.	16ff\	16aa\	.	.	.	.	.	.	.	.	.
8F\	.	16ff\	16aa\	.	4F\	-bis	4ff\	-bis	.	.	.	.
.	.	16ff\	16aa\	.	.	.	.	.	.	.	.	.
8F\J	.	16ff\	16aa\	.	.	.	.	.	.	.	.	.
.	.	16ff\JJ	16aa\JJ	.	.	.	.	.	.	.	.	.
=50	=50	=50	=50	=50	=50	=50	=50	=50	=50	=50	=50	=50
!	!	!	!	!	!	!	!	!	!	!LO:TX:a:t=2	!	!
!	!	!	!	!	!	!	!	!	!	!LO:N:vis=0	!	!
8C#X/L	6 5	16ee\LL	16gg\LL	.	2C#X/	pa-	2ee\	pa-	2ryy	1r	.	.
.	.	16ee\	16gg\	.	.	.	.	.	.	.	.	.
8C#X/	.	16ee\	16gg\	.	.	.	.	.	.	.	.	.
.	.	16ee\	16gg\	.	.	.	.	.	.	.	.	.
8C#X/	.	16ee\	16gg\	.	.	.	.	.	.	.	.	.
.	.	16ee\	16gg\	.	.	.	.	.	.	.	.	.
8C#X/J	.	16ee\	16gg\	.	.	.	.	.	.	.	.	.
.	.	16ee\JJ	16gg\JJ	.	.	.	.	.	.	.	.	.
=51	=51	=51	=51	=51	=51	=51	=51	=51	=51	=51	=51	=51
*	*	*	*	*	*2\right	*	*	*	*	*	*	*
8D/L	-	16dd\LL	16ff\LL	.	2D\	-cem	2dd\	-cem	2ryy	.	.	.
.	.	16dd\	16ff\	.	.	.	.	.	.	.	.	.
8D/	.	16dd\	16ff\	.	.	.	.	.	.	.	.	.
.	.	16dd\	16ff\	.	.	.	.	.	.	.	.	.
8D/	.	16dd\	16ff\	.	.	.	.	.	.	.	.	.
.	.	16dd\	16ff\	.	.	.	.	.	.	.	.	.
8D/J	.	16dd\	16ff\	.	.	.	.	.	.	.	.	.
.	.	16dd\JJ	16ff\JJ	.	.	.	.	.	.	.	.	.
!	!	!	!	!	!	!	!LO:LB:g=original	!	!	!	!	!
=52	=52	=52	=52	=52	=52	=52	=52	=52	=52	=52	=52	=52
8BBn/L	6 5	16dd\LL	16ff\LL	.	4B\	Do-	4ff\	Do-	2ryy	2dd\	2dd\	2ff\
.	.	16dd\	16ff\	.	.	.	.	.	.	.	.	.
8BBn/	.	16dd\	16ff\	.	.	.	.	.	.	.	.	.
.	.	16dd\	16ff\	.	.	.	.	.	.	.	.	.
8BBn/	.	16dd\	16ff\	.	4B\	-na	4ff\	-na	.	.	.	.
.	.	16dd\	16ff\	.	.	.	.	.	.	.	.	.
8BBn/J	.	16dd\	16ff\	.	.	.	.	.	.	.	.	.
.	.	16dd\JJ	16ff\JJ	.	.	.	.	.	.	.	.	.
*Xtremolo	*	*Xtremolo	*Xtremolo	*	*	*	*	*	*	*	*	*
=53	=53	=53	=53	=53	=53	=53	=53	=53	=53	=53	=53	=53
8C\L	.	8cc\L	8ee\L	.	4c\	No-	4ee\	No-	2ryy	4ee\	4cc\	4ee\
8C\	.	16dd\L	16ff\L	.	.	.	.	.	.	.	.	.
.	.	16ee\JJ	16gg\JJ	.	.	.	.	.	.	.	.	.
.	.	8qqee/	8qgg/	.	.	.	.	.	.	.	.	.
8F\	6	8dd\L	8ff\L	.	4F\	-bis	4dd\	-bis	.	4ff\	4dd\	4ff\
8F\J	.	16cc\L	16ee\L	.	.	.	.	.	.	.	.	.
.	.	16b\JJ	16dd\JJ	.	.	.	.	.	.	.	.	.
!	!	!	!	!	!	!	!	!	!	!	!	!LO:LB:g=original
=54	=54	=54	=54	=54	=54	=54	=54	=54	=54	=54	=54	=54
!LO:TX:a:t=P:problem:mixed beam	!	!	!	!	!	!	!	!	!	!	!	!
8G\L	4	8e/L	8cc\L	.	4G\	pa-	4cc\	pa-	2ryy	4ee\	4cc\	4ee\
8G\	.	16f/L	16dd\L	.	.	.	.	.	.	.	.	.
.	.	16g/JJ	16ee\JJ	.	.	.	.	.	.	.	.	.
.	.	8qqg/	8qee/	.	.	.	.	.	.	.	.	.
8GG/	3	8f/L	8dd\L	.	4GG/	.	4b\	.	.	4dd\	4b\	4dd\
8GG/J	.	16e/L	16cc\L	.	.	.	.	.	.	.	.	.
.	.	16d/JJ	16b\JJ	.	.	.	.	.	.	.	.	.
!	!	!	!LO:LB:g=original	!	!	!	!	!	!	!	!	!
=55	=55	=55	=55	=55	=55	=55	=55	=55	=55	=55	=55	=55
4C/	.	4cc 4e 4G/	4cc 4e 4G/	.	4C/	-cem	4cc\	-cem	2ryy	4cc\	4cc\	4cc\
!LO:TX:b:i:t=Finis	!	!	!	!	!	!	!	!	!	!LO:TX:b:i:t=Finis	!LO:TX:b:i:t=Finis	!
4r	.	4r	4r	.	4r	.	4r	.	.	4r	4r	4r
==	==	==	==	==	==	==	==	==	==	==	==	==
*-	*-	*-	*-	*-	*-	*-	*-	*-	*-	*-	*-	*-
!!!system-decoration: [g1][g2][g3][g4]s9
!!!RDF**kern: > = above
!!!RDF**kern: < = below
!!!RDF**dynam: p = "p."
!!!RDF**dynam: f = "for"
!!!ENC: Marta Lawrence
!!!END: 2020-10-13
!!!ENC:Anastazja Marusiak
!!!END:2020-06-03
